svg/add-circle.svg

<?xml version="1.0" encoding="UTF-8" standalone="no"?>
<svg width="26px" height="26px" viewBox="0 0 26 26" version="1.1" xmlns="http://www.w3.org/2000/svg" xmlns:xlink="http://www.w3.org/1999/xlink" xmlns:sketch="http://www.bohemiancoding.com/sketch/ns">
    <!-- Generator: Sketch 3.5.2 (25235) - http://www.bohemiancoding.com/sketch -->
    <title>add</title>
    <desc>Created with Sketch.</desc>
    <defs></defs>
    <path fill-rule="evenodd" d="M15,15 L19.0059397,15 C20.1054862,15 21,14.1045695 21,13 C21,11.8877296 20.1072288,11 19.0059397,11 L15,11 L15,6.99406028 C15,5.89451376 14.1045695,5 13,5 C11.8877296,5 11,5.8927712 11,6.99406028 L11,11 L6.99406028,11 C5.89451376,11 5,11.8954305 5,13 C5,14.1122704 5.8927712,15 6.99406028,15 L11,15 L11,19.0059397 C11,20.1054862 11.8954305,21 13,21 C14.1122704,21 15,20.1072288 15,19.0059397 L15,15 L15,15 L15,15 L15,15 L15,15 Z M22.1923882,3.80761184 C17.1155724,-1.26920395 8.88442764,-1.26920395 3.80761184,3.80761184 C-1.26920395,8.88442764 -1.26920395,17.1155724 3.80761184,22.1923882 C8.88442764,27.2692039 17.1155724,27.2692039 22.1923882,22.1923882 C27.2692039,17.1155724 27.2692039,8.88442764 22.1923882,3.80761184 L22.1923882,3.80761184 L22.1923882,3.80761184 Z" id="add" fill="#000000"></path>
</svg>

<svg viewBox="0 0 26 26" xmlns="http://www.w3.org/2000/svg"><path fill="#333" fill-rule="evenodd" d="M15 15h4c1 0 2-1 2-2s-1-2-2-2h-4V7c0-1-1-2-2-2s-2 1-2 2v4H7c-1 0-2 1-2 2s1 2 2 2h4v4c0 1 1 2 2 2s2-1 2-2v-4zm7.2-11.2c-5-5-13.3-5-18.4 0-5 5-5 13.3 0 18.4 5 5 13.3 5 18.4 0 5-5 5-13.3 0-18.4z"/></svg>
